!!!Genre:	Freylekhs
!!!Mode:	Freygish
!!!Listening/dance:	dance
!!!One_Mode:	yes
**kern
*part1
*staff1
*clefG2
*k[b-e-a-]
*G:frey
*M2/4
*>A
=1-
4bn
4cc
=2
8ddL
8ee-J
4cc
=3
8.bnL
16a-k
8.b
16a-Jk
=4
8gL
8ccJ
16a-LL
16gJ
8fJ
=5
4bn
4cc
=6
8ddL
8ee-J
4cc
=7
8.bnL
16a-k
8.b
16a-Jk
*>A1
=8
8a-
4.g
*>A2
=9:|!
8a-
4g
8gg
=10!|:
*>B
16ffLL
16gg
16aa-
16ggJJ
16ffLL
16ee-
16dd
16ccJJ
=11
8ggL
8ggJ
4cc
=12
16bnLL
16cc
16dd
16ccJJ
16bLL
16a-
16g
16fJJ
=13
8ccL
8ccJ
4f
=14
16fLL
16gJ
8a-J
8r
8a-
=15
16a-LL
16bnJ
8ccJ
8r
8cc
=16
8.bnL
16a-k
8.b
16a-Jk
*>B1
=17
8gL
8gg
8gg
8ggJ
*>B2
=18:|!
8a-
4g
8r
==
*-
